G21; mm 
G90; mm 
M106 S200; open 100% 
M107; close 
;G28; home 
G92 Z60.0
;G0 F1000 Z60.0
G92 X0 Y0
;%
;Header;
;Generated by gcodetools from Inkscape.;
;Using default header. To add your own header create file "header" in the output dir.;
;M3
;Header end.;
G21 ;All units in mm;

;Start cutting path id: path3997;
;;;
;Change tool to Default tool;

M107; close laser 
G00 f1000 X6.840079 Y51.520326

G01 Z60.000000 F100.0;Penetrate;
M106 S200; open 100% 
G4 P200 ;wait 0.2s 
G91 
G0 x0.1 y0.1 f50 Z0.1
G0 x-0.2 y-0.2 Z-0.2 
G0 x0.2 y0.2 Z0.1 
G4 P500 ;wait 0.5s 
G0 x-0.2 y-0.2 F0.5 
G0 x0.2 y0.2 
G0 x-0.1 y-0.1 
G90 
G0 F150.0 
M106 S200; open 100% 
G03 X7.518849 Y52.986947 Z60.000000 I-11.772235 J6.338716 F150.000000
G03 X7.832259 Y54.055918 Z60.000000 I-5.915969 J2.314927
G02 X8.078190 Y55.149612 Z60.000000 I23.095195 J-4.618743
G02 X8.162996 Y55.378834 Z60.000000 I1.086138 J-0.271540
G02 X8.462703 Y55.218430 Z60.000000 I-0.318388 J-0.955091
G02 X9.155176 Y54.607131 Z60.000000 I-4.563778 J-5.867662
G02 X9.454204 Y53.644372 Z60.000000 I-1.129768 J-0.878718
G02 X9.044940 Y52.733001 Z60.000000 I-1.403169 J0.082534
G03 X8.446105 Y52.126691 Z60.000000 I2.820233 J-3.384343
G03 X7.611759 Y50.969112 Z60.000000 I9.586210 J-7.788910
G02 X8.219492 Y49.949395 Z60.000000 I-9.773356 J-6.515700
G02 X8.603968 Y49.094979 Z60.000000 I-6.466991 J-3.423771
G02 X9.006543 Y48.075346 Z60.000000 I-3.666435 J-2.036885
G02 X9.044940 Y47.331090 Z60.000000 I-1.880554 J-0.470138
G02 X8.625032 Y46.664097 Z60.000000 I-2.317101 J0.993066
G02 X8.273232 Y46.449145 Z60.000000 I-0.519093 J0.454211
G02 X8.868027 Y46.046445 Z60.000000 I-1.224997 J-2.449952
G02 X9.265412 Y45.567201 Z60.000000 I-1.367059 J-1.537930
G02 X9.586716 Y44.550128 Z60.000000 I-2.333877 J-1.296583
G02 X9.485912 Y43.472584 Z60.000000 I-2.733574 J-0.287763
G02 X8.799986 Y42.435385 Z60.000000 I-3.605138 J1.638760
G02 X8.273232 Y42.149668 Z60.000000 I-0.677951 J0.621459
G02 X8.152381 Y42.199728 Z60.000000 I-0.031566 J0.094700
G02 X8.162996 Y42.370154 Z60.000000 I0.152144 J0.076067
G03 X8.462757 Y43.277282 Z60.000000 I-2.967244 J1.483622
G03 X8.493704 Y44.244284 Z60.000000 I-3.350453 J0.591219
G03 X8.221572 Y44.975749 Z60.000000 I-1.685341 J-0.210654
G03 X7.832259 Y45.236473 Z60.000000 I-0.509376 J-0.339577
G01 X5.847870 Y45.236473 Z60.000000
G02 X6.053819 Y44.570777 Z60.000000 I-15.208490 J-5.069821
G02 X6.288842 Y43.693070 Z60.000000 I-26.209114 J-7.488318
G02 X6.229419 Y43.249234 Z60.000000 I-0.676490 J-0.135324
G02 X5.958134 Y43.031612 Z60.000000 I-0.372212 J0.186094
G02 X5.512294 Y43.166599 Z60.000000 I-0.000000 J0.803761
G02 X5.296662 Y43.472584 Z60.000000 I0.287901 J0.431860
G03 X5.179644 Y44.463909 Z60.000000 I-72.433966 J-8.047715
G03 X5.076190 Y45.236473 Z60.000000 I-44.094614 J-5.511474
G01 X3.753273 Y45.236473 Z60.000000
G03 X3.770915 Y44.162694 Z60.000000 I4.611780 J-0.461267
G03 X3.973745 Y43.582826 Z60.000000 I1.503299 J0.200427
G02 X3.943199 Y43.201575 Z60.000000 I-0.399563 J-0.159836
G02 X3.643009 Y43.031612 Z60.000000 I-0.300190 J0.180118
G02 X3.000140 Y43.466859 Z60.000000 I0.808620 J1.886737
G02 X2.761065 Y43.913556 Z60.000000 I0.618181 J0.618181
G03 X2.987506 Y44.389294 Z60.000000 I-1.064676 J0.798524
G03 X3.091801 Y45.236473 Z60.000000 I-3.388644 J0.847179
G03 X1.993007 Y45.199887 Z60.000000 I0.000000 J-16.518352
G03 X1.438148 Y45.126229 Z60.000000 I0.284810 J-4.272110
G02 X1.092520 Y45.405640 Z60.000000 I0.463261 J0.926522
G02 X0.997176 Y45.677445 Z60.000000 I0.339757 J0.271805
G02 X1.231237 Y46.242520 Z60.000000 I0.799136 J0.000000
G02 X1.879120 Y46.559390 Z60.000000 I0.785707 J-0.785707
G03 X2.439646 Y46.424845 Z60.000000 I0.741225 J1.853134
G03 X3.091801 Y46.449145 Z60.000000 I0.231602 J2.547599
G01 X3.091801 Y47.110604 Z60.000000
G02 X3.139217 Y47.311449 Z60.000000 I0.449080 J0.000000
G02 X3.312301 Y47.551576 Z60.000000 I0.826393 J-0.413223
G02 X3.546901 Y47.496197 Z60.000000 I0.072499 J-0.217480
G02 X3.753273 Y47.110604 Z60.000000 I-0.533620 J-0.533620
G01 X3.753273 Y46.449145 Z60.000000
G01 X4.965926 Y46.449145 Z60.000000
G02 X4.886010 Y46.893850 Z60.000000 I3.266007 J0.816449
G02 X4.855690 Y47.441334 Z60.000000 I4.927681 J0.547484
G02 X5.015989 Y47.651207 Z60.000000 I0.385977 J-0.128651
G02 X5.186426 Y47.661820 Z60.000000 I0.094363 J-0.141547
G02 X5.325564 Y47.564364 Z60.000000 I-0.000000 J-0.148052
G02 X5.627398 Y46.449145 Z60.000000 I-6.435976 J-2.340352
G01 X8.162996 Y46.449145 Z60.000000
G02 X8.095858 Y46.579591 Z60.000000 I0.169929 J0.169960
G02 X7.942495 Y47.772062 Z60.000000 I15.921195 J2.653702
G03 X7.606097 Y49.052296 Z60.000000 I-7.120308 J-1.186642
G03 X7.060551 Y50.197409 Z60.000000 I-6.229249 J-2.265181
G03 X6.586495 Y49.492973 Z60.000000 I3.191007 J-2.659138
G03 X6.178606 Y48.543765 Z60.000000 I5.426062 J-2.893902
G02 X5.910222 Y48.171394 Z60.000000 I-0.489540 J0.069930
G02 X5.517162 Y48.213034 Z60.000000 I-0.163991 J0.327973
G02 X5.347035 Y48.492559 Z60.000000 I0.214869 J0.322310
G02 X5.406898 Y49.205223 Z60.000000 I1.839001 J0.204372
G02 X5.867408 Y49.964408 Z60.000000 I14.770648 J-8.440386
G02 X6.399107 Y50.748626 Z60.000000 I16.293400 J-10.474552
G03 X5.312653 Y51.368027 Z60.000000 I-1.930394 J-2.123446
G03 X4.965926 Y51.189598 Z60.000000 I-0.082048 J-0.266661
G03 X4.807413 Y50.518086 Z60.000000 I3.644550 J-1.214772
G03 X4.745454 Y49.646195 Z60.000000 I6.103624 J-0.871890
G03 X4.888817 Y49.106345 Z60.000000 I4.406633 J0.881268
G03 X5.076190 Y48.654006 Z60.000000 I3.275689 J1.091918
G02 X4.979321 Y48.420148 Z60.000000 I-0.330722 J0.000000
G02 X4.745454 Y48.323279 Z60.000000 I-0.233867 J0.233873
G02 X4.551218 Y48.463272 Z60.000000 I0.334178 J0.668407
G02 X4.304482 Y48.764251 Z60.000000 I1.396185 J1.396185
G02 X4.176750 Y49.114890 Z60.000000 I0.656633 J0.437785
G02 X4.194246 Y49.756437 Z60.000000 I2.319860 J0.257746
G01 X3.532773 Y49.756437 Z60.000000
G03 X3.529228 Y48.996353 Z60.000000 I2.750320 J-0.392878
G03 X3.753273 Y48.102793 Z60.000000 I4.045165 J0.539390
G02 X3.681533 Y47.843799 Z60.000000 I-0.264588 J-0.066143
G02 X3.422537 Y47.772062 Z60.000000 I-0.192849 J0.192853
G02 X2.983838 Y48.086138 Z60.000000 I0.420080 J1.050187
G02 X2.761065 Y48.543765 Z60.000000 I0.764226 J0.655064
G03 X2.833142 Y48.880691 Z60.000000 I-1.474572 J0.491620
G03 X2.871329 Y49.646195 Z60.000000 I-7.653578 J0.765505
G01 X1.658648 Y49.646195 Z60.000000
G02 X1.370612 Y49.725977 Z60.000000 I-0.000000 J0.559839
G02 X1.107440 Y49.976923 Z60.000000 I0.426372 J0.710614
G02 X1.266980 Y50.652797 Z60.000000 I0.988071 J0.123533
G02 X1.768884 Y50.969112 Z60.000000 I0.604680 J-0.403111
G01 X2.871329 Y50.969112 Z60.000000
G01 X2.871329 Y53.063729 Z60.000000
G02 X3.062390 Y53.401184 Z60.000000 I0.704673 J-0.176157
G02 X3.312301 Y53.504701 Z60.000000 I0.249912 J-0.249912
G02 X3.503498 Y53.313498 Z60.000000 I-0.095604 J-0.286797
G02 X3.532773 Y52.843243 Z60.000000 I-0.870808 J-0.290251
G01 X3.532773 Y50.969112 Z60.000000
G01 X4.194246 Y50.969112 Z60.000000
G02 X4.194232 Y51.501231 Z60.000000 I1.330203 J0.266092
G02 X4.414718 Y52.071543 Z60.000000 I1.756408 J-0.351259
G02 X4.808435 Y52.355316 Z60.000000 I0.651084 J-0.488323
G02 X5.406898 Y52.402270 Z60.000000 I0.393754 J-1.181257
G02 X6.028846 Y52.111976 Z60.000000 I-0.946136 J-2.838469
G02 X6.840079 Y51.520326 Z60.000000 I-3.355750 J-5.453174
G01 X6.840079 Y51.520326 Z60.000000
M107; close laser 

;End cutting path id: path3997;


;Start cutting path id: path3995;
;;;
;Change tool to Default tool;

M107; close laser 
G00 f1000 X3.312301 Y31.345848

G01 Z60.000000 F100.0;Penetrate;
M106 S200; open 100% 
G4 P200 ;wait 0.2s 
G91 
G0 x0.1 y0.1 f50 Z0.1
G0 x-0.2 y-0.2 Z-0.2 
G0 x0.2 y0.2 Z0.1 
G4 P500 ;wait 0.5s 
G0 x-0.2 y-0.2 F0.5 
G0 x0.2 y0.2 
G0 x-0.1 y-0.1 
G90 
G0 F150.0 
M106 S200; open 100% 
G01 X2.430357 Y31.345848 Z60.000000 F150.000000
G02 X2.358933 Y29.760457 Z60.000000 I-7.110198 J-0.473982
G02 X2.099620 Y29.251229 Z60.000000 I-0.912646 J0.144105
G02 X1.926101 Y29.191696 Z60.000000 I-0.125733 J0.083827
G02 X1.768884 Y29.361473 Z60.000000 I0.076028 J0.228085
G03 X1.851765 Y29.915395 Z60.000000 I-5.622431 J1.124417
G03 X1.879120 Y30.463904 Z60.000000 I-5.485432 J0.548508
G03 X1.764035 Y31.124473 Z60.000000 I-44.980781 J-7.496317
G03 X1.658648 Y31.676576 Z60.000000 I-31.526323 J-5.731699
G01 X1.217676 Y32.999492 Z60.000000
G02 X1.244051 Y33.213753 Z60.000000 I0.883471 J-0.000000
G02 X1.327912 Y33.440465 Z60.000000 I1.074628 J-0.268640
G02 X1.768887 Y33.713000 Z60.000000 I0.797719 J-0.797719
G02 X1.989384 Y33.660951 Z60.000000 I0.068138 J-0.204419
G02 X2.166885 Y32.992520 Z60.000000 I-5.279806 J-1.759823
G02 X2.209856 Y32.558520 Z60.000000 I-2.170135 J-0.433999
G01 X3.202037 Y32.558520 Z60.000000
G01 X3.312301 Y33.881437 Z60.000000
G02 X3.445007 Y34.065567 Z60.000000 I0.633696 J-0.316828
G02 X3.532773 Y34.101923 Z60.000000 I0.087766 J-0.087761
G02 X3.747513 Y34.051231 Z60.000000 I0.066358 J-0.199077
G02 X3.863509 Y33.771195 Z60.000000 I-0.280029 J-0.280036
G01 X3.863509 Y32.558520 Z60.000000
G01 X4.745454 Y32.558520 Z60.000000
G01 X5.296662 Y33.440465 Z60.000000
G02 X5.824019 Y33.750765 Z60.000000 I0.862411 J-0.862397
G02 X6.068370 Y33.660951 Z60.000000 I0.060653 J-0.212287
G01 X5.627398 Y32.558520 Z60.000000
G01 X9.265412 Y32.558520 Z60.000000
G02 X9.587935 Y32.338928 Z60.000000 I-0.136943 J-0.547779
G02 X9.816620 Y31.786820 Z60.000000 I-1.077786 J-0.769839
G02 X9.723148 Y31.402621 Z60.000000 I-0.458960 J-0.091809
G02 X9.375648 Y31.235604 Z60.000000 I-0.347500 J0.277999
G03 X8.271293 Y31.306975 Z60.000000 I-1.567471 J-15.674312
G03 X5.627398 Y31.345848 Z60.000000 I-2.643894 J-89.890923
G02 X6.496493 Y30.560410 Z60.000000 I-24.034847 J-27.468346
G02 X7.281051 Y29.802445 Z60.000000 I-21.597380 J-23.140149
G02 X7.641577 Y29.215309 Z60.000000 I-2.173947 J-1.739153
G02 X7.832259 Y28.589770 Z60.000000 I-2.283279 J-1.037840
G02 X7.758893 Y28.013098 Z60.000000 I-0.997019 J-0.166159
G02 X7.391287 Y27.597584 Z60.000000 I-0.841253 J0.373891
G03 X6.938024 Y28.361688 Z60.000000 I-23.729288 J-13.559618
G03 X6.509343 Y29.030742 Z60.000000 I-18.619641 J-11.458252
G03 X5.177037 Y30.547638 Z60.000000 I-9.267475 J-6.796182
G03 X4.083981 Y31.345848 Z60.000000 I-3.566358 J-3.736204
G03 X4.212369 Y30.025193 Z60.000000 I48.072549 J4.006815
G03 X4.304482 Y29.361473 Z60.000000 I12.227192 J1.358664
G02 X4.210527 Y28.819078 Z60.000000 I-0.660046 J-0.165001
G02 X3.863509 Y28.700015 Z60.000000 I-0.251450 J0.167633
G02 X3.483839 Y28.973667 Z60.000000 I0.653312 J1.306623
G02 X3.312301 Y29.251229 Z60.000000 I0.502099 J0.502094
G02 X3.208480 Y29.594108 Z60.000000 I0.514289 J0.342880
G02 X3.312301 Y30.133173 Z60.000000 I1.451393 J-0.000000
G03 X3.366937 Y30.577013 Z60.000000 I-1.775475 J0.443840
G03 X3.312301 Y31.345848 Z60.000000 I-5.436833 J0.000000
G01 X3.312301 Y31.345848 Z60.000000
M107; close laser 

;Change tool to Default tool;

M107; close laser 
G00 f1000 X5.737634 Y37.188729

G01 Z60.000000 F100.0;Penetrate;
M106 S200; open 100% 
G4 P200 ;wait 0.2s 
G91 
G0 x0.1 y0.1 f50 Z0.1
G0 x-0.2 y-0.2 Z-0.2 
G0 x0.2 y0.2 Z0.1 
G4 P500 ;wait 0.5s 
G0 x-0.2 y-0.2 F0.5 
G0 x0.2 y0.2 
G0 x-0.1 y-0.1 
G90 
G0 F150.0 
M106 S200; open 100% 
G03 X2.873701 Y37.243785 Z60.000000 I-2.863933 J-74.460943 F150.000000
G03 X1.989384 Y37.188729 Z60.000000 I0.000000 J-7.129499
G02 X1.338763 Y37.177889 Z60.000000 I-0.345552 J1.209442
G02 X1.107440 Y37.409215 Z60.000000 I0.077107 J0.308428
G02 X1.074276 Y37.629703 Z60.000000 I0.322400 J0.161231
G02 X1.217676 Y38.070673 Z60.000000 I1.537828 J-0.256288
G02 X1.507661 Y38.399174 Z60.000000 I0.763469 J-0.381710
G02 X1.879120 Y38.511645 Z60.000000 I0.371459 J-0.557177
G03 X3.755848 Y38.374711 Z60.000000 I2.483862 J21.113061
G03 X5.737634 Y38.401404 Z60.000000 I0.673548 J23.574518
G02 X5.682664 Y40.931405 Z60.000000 I58.193727 J2.530002
G02 X5.737634 Y41.377965 Z60.000000 I1.841323 J0.000000
G02 X6.137724 Y41.195516 Z60.000000 I-0.293224 J-1.172912
G02 X6.840079 Y40.606265 Z60.000000 I-3.013786 J-4.305471
G02 X6.982605 Y40.262161 Z60.000000 I-0.344127 J-0.344104
G02 X6.840079 Y39.834562 Z60.000000 I-0.712694 J-0.000000
G03 X6.756468 Y39.497979 Z60.000000 I2.102421 J-0.700944
G03 X6.619579 Y38.511645 Z60.000000 I18.021958 J-3.003852
G03 X8.162212 Y38.456622 Z60.000000 I1.542634 J21.597347
G03 X9.265412 Y38.511645 Z60.000000 I0.000000 J11.087019
G02 X9.503663 Y38.389036 Z60.000000 I0.000000 J-0.292786
G02 X9.816620 Y37.739945 Z60.000000 I-1.723132 J-1.230795
G02 X9.697064 Y37.308285 Z60.000000 I-0.839038 J-0.000000
G02 X9.485912 Y37.188729 Z60.000000 I-0.211152 J0.126683
G03 X8.052731 Y37.243770 Z60.000000 I-1.433181 J-18.631388
G03 X6.619579 Y37.188729 Z60.000000 I0.000000 J-18.685696
G03 X6.716555 Y35.437827 Z60.000000 I15.854748 J-0.000000
G03 X6.950315 Y34.212167 Z60.000000 I7.978063 J0.886471
G02 X6.914426 Y33.885288 Z60.000000 I-0.459757 J-0.114932
G02 X6.729815 Y33.771195 Z60.000000 I-0.184611 J0.092312
G02 X5.865481 Y34.341138 Z60.000000 I0.956197 J2.390463
G02 X5.737634 Y34.763381 Z60.000000 I0.330568 J0.330566
G03 X5.792635 Y35.756506 Z60.000000 I-8.938708 J0.993125
G03 X5.737634 Y37.188729 Z60.000000 I-18.675066 J0.000000
G01 X5.737634 Y37.188729 Z60.000000
M107; close laser 

;Change tool to Default tool;

M107; close laser 
G00 f1000 X2.320092 Y34.873626

G01 Z60.000000 F100.0;Penetrate;
M106 S200; open 100% 
G4 P200 ;wait 0.2s 
G91 
G0 x0.1 y0.1 f50 Z0.1
G0 x-0.2 y-0.2 Z-0.2 
G0 x0.2 y0.2 Z0.1 
G4 P500 ;wait 0.5s 
G0 x-0.2 y-0.2 F0.5 
G0 x0.2 y0.2 
G0 x-0.1 y-0.1 
G90 
G0 F150.0 
M106 S200; open 100% 
G02 X2.149964 Y35.136756 Z60.000000 I0.218626 J0.327918 F150.000000
G02 X2.209856 Y35.535084 Z60.000000 I0.642450 J0.107068
G02 X2.450272 Y35.963748 Z60.000000 I4.632856 J-2.316576
G02 X2.761065 Y36.417029 Z60.000000 I5.492639 J-3.432855
G01 X3.091801 Y36.858001 Z60.000000
G02 X3.281608 Y36.959579 Z60.000000 I0.189807 J-0.126547
G02 X3.422537 Y36.858001 Z60.000000 I-0.000000 J-0.148551
G02 X3.368231 Y36.093904 Z60.000000 I-5.402639 J0.000000
G02 X3.202037 Y35.314598 Z60.000000 I-5.787163 J0.826790
G02 X2.769965 Y34.856352 Z60.000000 I-0.841506 J0.360622
G02 X2.320092 Y34.873626 Z60.000000 I-0.209202 J0.418404
G01 X2.320092 Y34.873626 Z60.000000
M107; close laser 

;Change tool to Default tool;

M107; close laser 
G00 f1000 X3.973745 Y34.322409

G01 Z60.000000 F100.0;Penetrate;
M106 S200; open 100% 
G4 P200 ;wait 0.2s 
G91 
G0 x0.1 y0.1 f50 Z0.1
G0 x-0.2 y-0.2 Z-0.2 
G0 x0.2 y0.2 Z0.1 
G4 P500 ;wait 0.5s 
G0 x-0.2 y-0.2 F0.5 
G0 x0.2 y0.2 
G0 x-0.1 y-0.1 
G90 
G0 F150.0 
M106 S200; open 100% 
G02 X3.957033 Y34.646492 Z60.000000 I0.576673 J0.192211 F150.000000
G02 X4.194246 Y35.314598 Z60.000000 I2.832208 J-0.629419
G03 X4.382035 Y35.874956 Z60.000000 I-4.805475 J1.922072
G03 X4.524954 Y36.527270 Z60.000000 I-6.375351 J1.738623
G02 X4.730638 Y36.442073 Z60.000000 I0.053725 J-0.161177
G02 X4.965926 Y35.645326 Z60.000000 I-2.115958 J-1.057979
G01 X4.965926 Y34.983867 Z60.000000
G02 X4.745699 Y34.192094 Z60.000000 I-2.784923 J0.348093
G02 X4.524954 Y33.991681 Z60.000000 I-0.337554 J0.150024
G02 X4.157368 Y34.093498 Z60.000000 I0.000000 J0.714454
G02 X3.973745 Y34.322409 Z60.000000 I0.217586 J0.362640
G01 X3.973745 Y34.322409 Z60.000000
M107; close laser 

;End cutting path id: path3995;


;Start cutting path id: path3993;
;;;
;Change tool to Default tool;

M107; close laser 
G00 f1000 X5.186426 Y19.770327

G01 Z60.000000 F100.0;Penetrate;
M106 S200; open 100% 
G4 P200 ;wait 0.2s 
G91 
G0 x0.1 y0.1 f50 Z0.1
G0 x-0.2 y-0.2 Z-0.2 
G0 x0.2 y0.2 Z0.1 
G4 P500 ;wait 0.5s 
G0 x-0.2 y-0.2 F0.5 
G0 x0.2 y0.2 
G0 x-0.1 y-0.1 
G90 
G0 F150.0 
M106 S200; open 100% 
G03 X5.241167 Y20.431785 Z60.000000 I-3.969004 J0.661458 F150.000000
